assets/img/braze_icons/translate-02.svg

<svg fill="none" height="24" viewBox="0 0 24 24" width="24" xmlns="http://www.w3.org/2000/svg"><g fill="#801ed7"><path d="m7 1c-.55228 0-1 .44772-1 1s.44772 1 1 1h1c.55228 0 1-.44772 1-1s-.44772-1-1-1z"/><path d="m9.22288 7.3629.90862-1.3629h-8.1315c-.55228 0-1-.44772-1-1s.44772-1 1-1h9.9853c.0104-.00016.0208-.00016.0313 0h1.9834c.5523 0 1 .44772 1 1s-.4477 1-1 1h-1.4648l-1.7031 2.55468c-.0366.0548-.0784.10585-.125.15241l-1.79289 1.79291 1.79289 1.7929c.3905.3905.3905 1.0237 0 1.4142s-1.02368.3905-1.41421 0l-1.7929-1.7929-2.79288 2.7929c-.39053.3905-1.02369.3905-1.41422 0-.39052-.3905-.39052-1.0237 0-1.4142l2.79289-2.7929-1.79289-1.79289c-.39052-.39053-.39052-1.02369 0-1.41422.39053-.39052 1.02369-.39052 1.41422 0l1.79288 1.79289z"/><path clip-rule="evenodd" d="m15.8477 9.30806c.4121-.199.8925-.199 1.3046 0 .3584.17311.5528.47472.6493.63703.1012.17001.205.38711.3069.60031l2.8716 6.0043c.0065.0128.0126.0257.0186.0388l1.9034 3.98c.2383.4982.0276 1.0953-.4707 1.3336-.4982.2383-1.0953.0275-1.3335-.4707l-1.6412-3.4315h-5.9134l-1.6412 3.4315c-.2383.4982-.8353.709-1.3336.4707-.4982-.2383-.70893-.8354-.4706-1.3336l1.9034-3.98c.0059-.0131.0121-.026.0186-.0388l2.8716-6.0042c.1019-.2133.2057-.4303.3068-.60041.0966-.16231.2909-.46392.6494-.63703zm2.6525 6.69184-2.0002-4.1822-2.0002 4.1822z" fill-rule="evenodd"/></g></svg>

<svg width="24" height="24" viewBox="0 0 24 24" fill="none" xmlns="http://www.w3.org/2000/svg">
<path d="M7 1C6.44772 1 6 1.44772 6 2C6 2.55228 6.44772 3 7 3H8C8.55228 3 9 2.55228 9 2C9 1.44772 8.55228 1 8 1H7Z" fill="#801ED7"/>
<path d="M9.22288 7.3629L10.1315 6H2C1.44772 6 1 5.55228 1 5C1 4.44772 1.44772 4 2 4H11.9853C11.9957 3.99984 12.0061 3.99984 12.0166 4H14C14.5523 4 15 4.44772 15 5C15 5.55228 14.5523 6 14 6H12.5352L10.8321 8.55468C10.7955 8.60948 10.7537 8.66053 10.7071 8.70709L8.91421 10.5L10.7071 12.2929C11.0976 12.6834 11.0976 13.3166 10.7071 13.7071C10.3166 14.0976 9.68342 14.0976 9.29289 13.7071L7.49999 11.9142L4.70711 14.7071C4.31658 15.0976 3.68342 15.0976 3.29289 14.7071C2.90237 14.3166 2.90237 13.6834 3.29289 13.2929L6.08578 10.5L4.29289 8.70711C3.90237 8.31658 3.90237 7.68342 4.29289 7.29289C4.68342 6.90237 5.31658 6.90237 5.70711 7.29289L7.49999 9.08578L9.22288 7.3629Z" fill="#801ED7"/>
<path fill-rule="evenodd" clip-rule="evenodd" d="M15.8477 9.30806C16.2598 9.10906 16.7402 9.10906 17.1523 9.30806C17.5107 9.48117 17.7051 9.78278 17.8016 9.94509C17.9028 10.1151 18.0066 10.3322 18.1085 10.5454L20.9801 16.5497C20.9866 16.5625 20.9927 16.5754 20.9987 16.5885L22.9021 20.5685C23.1404 21.0667 22.9297 21.6638 22.4314 21.9021C21.9332 22.1404 21.3361 21.9296 21.0979 21.4314L19.4567 17.9999H13.5433L11.9021 21.4314C11.6638 21.9296 11.0668 22.1404 10.5685 21.9021C10.0703 21.6638 9.85957 21.0667 10.0979 20.5685L12.0013 16.5885C12.0072 16.5754 12.0134 16.5625 12.0199 16.5497L14.8915 10.5455C14.9934 10.3322 15.0972 10.1152 15.1983 9.94509C15.2949 9.78278 15.4892 9.48117 15.8477 9.30806ZM18.5002 15.9999L16.5 11.8177L14.4998 15.9999H18.5002Z" fill="#801ED7"/>
</svg>
